common/resources/fonts/svg/add-collaborator.svg

<?xml version="1.0" encoding="UTF-8" standalone="no"?>
<svg width="1024px" height="1024px" viewBox="0 0 1024 1024" version="1.1" xmlns="http://www.w3.org/2000/svg" xmlns:xlink="http://www.w3.org/1999/xlink">
    <!-- Generator: Sketch 3.7.1 (28215) - http://www.bohemiancoding.com/sketch -->
    <title>add-collaborator</title>
    <desc>Created with Sketch.</desc>
    <defs></defs>
    <g id="Page-1" stroke="none" stroke-width="1" fill="none" fill-rule="evenodd">
        <g id="add-collaborator" fill="#000000">
            <path d="M846.558265,729.983661 L735.444506,729.983661 L735.444506,840.793871 L679.887626,840.793871 L679.887626,729.983661 L568.773868,729.983661 L568.773868,674.578556 L679.887626,674.578556 L679.887626,563.768347 L735.444506,563.768347 L735.444506,674.578556 L846.558265,674.578556 L846.558265,729.983661 L846.558265,729.983661 Z M707.666066,452.958137 C569.662778,452.958137 457.660109,564.599423 457.660109,702.281109 C457.660109,839.962794 569.662778,951.60408 707.666066,951.60408 C845.780469,951.60408 957.672024,839.962794 957.672024,702.281109 C957.672024,564.599423 845.780469,452.958137 707.666066,452.958137 L707.666066,452.958137 L707.666066,452.958137 L707.666066,452.958137 L707.666066,452.958137 Z" id="Shape"></path>
            <path d="M398.227168,791.569576 L120.44277,791.569576 L120.44277,717.659166 C139.554337,706.41193 173.49959,689.956614 200.111336,677.158034 C322.892039,617.652952 398.227168,577.927492 398.227168,513.76838 C398.227168,473.71049 373.726584,449.830889 354.059449,430.660723 C325.836554,403.124386 287.113409,365.448915 287.113409,237.186097 C287.113409,171.974289 375.004392,126.542103 453.784047,126.542103 C532.674816,126.542103 620.454686,171.974289 620.454686,237.186097 C620.454686,365.448915 581.842654,403.124386 553.61976,430.660723 C545.119557,438.860679 536.119343,448.279547 528.230266,459.028137 L603.509837,459.028137 C635.621714,426.228315 676.011565,372.540768 676.011565,237.186097 C676.011565,133.633957 557.842083,71.1924035 453.784047,71.1924035 C349.837126,71.1924035 231.556529,133.633957 231.556529,237.186097 C231.556529,461.465961 342.670288,462.020012 342.670288,513.76838 C342.670288,569.11808 89.1642473,653.88789 64.885891,691.563362 L64.885891,846.86387 L398.227168,846.86387 L398.227168,791.569576 L398.227168,791.569576 Z" id="Shape"></path>
        </g>
    </g>
</svg>

<svg width="1024" height="1024" viewBox="0 0 1024 1024">
    <g fill-rule="evenodd">
        <path d="M846.558 729.984H735.445v110.81h-55.557v-110.81H568.774v-55.405h111.114v-110.81h55.557v110.81h111.113v55.405zM707.666 452.958c-138.003 0-250.006 111.641-250.006 249.323 0 137.682 112.003 249.323 250.006 249.323 138.114 0 250.006-111.641 250.006-249.323 0-137.682-111.892-249.323-250.006-249.323z"/>
        <path d="M398.227 791.57H120.443v-73.91c19.111-11.248 53.057-27.703 79.668-40.502 122.781-59.505 198.116-99.23 198.116-163.39 0-40.058-24.5-63.937-44.168-83.107-28.222-27.537-66.946-65.212-66.946-193.475 0-65.212 87.891-110.644 166.671-110.644 78.89 0 166.67 45.432 166.67 110.644 0 128.263-38.611 165.938-66.834 193.475-8.5 8.2-17.5 17.619-25.39 28.367h75.28c32.112-32.8 72.502-86.487 72.502-221.842 0-103.552-118.17-165.994-222.228-165.994-103.947 0-222.227 62.442-222.227 165.994 0 224.28 111.113 224.834 111.113 276.582 0 55.35-253.506 140.12-277.784 177.795v155.3h333.341V791.57z"/>
    </g>
</svg>
